X: 29955
T: Oak Ridge Stomp
R: reel
M: 4/4
K: Dmajor
e|:"D" fgfe d2 d2|ABAF D2 A2 -|"A" A2 A2 E2 F2|"D" ABAF D2 e2|
fgfe d2 d2|ABAF D2 A2 -|"A" A2 A2 B2 c2|"D" d4 d3 e:|
|:d2 fg fe d2|"G" B2 ga gf e2|"A" c2 a2 B2 c2|"D" dcdB A4|
d2 fg fe d2|"G" B2 ga gf e2|"A" c2 a2 B2 c2|"D" d4 d3 e:|

